src/images/arrow-down-big.svg

<svg fill="none" height="31" viewBox="0 0 72 31" width="72" xmlns="http://www.w3.org/2000/svg"><path d="m37.0953 30.2831 33.0438-21.62868c.5403-.35364.8766-.9464.903-1.59161l.1736-4.24003c.066-1.61371-1.7091-2.636148-3.0718-1.76933l-31.0704 19.76375c-.655.4166-1.4919.4166-2.1469 0l-31.07045-19.76374c-1.36272-.866826-3.137802.15561-3.071753 1.76932l.173546 4.24003c.026408.64521.362707 1.23796.903007 1.59161l33.04375 21.62868c.6653.4354 1.5253.4354 2.1906 0z" fill="#fc732c"/></svg>

<svg width="72" height="31" viewBox="0 0 72 31" fill="none" xmlns="http://www.w3.org/2000/svg">
<path d="M37.0953 30.2831L70.1391 8.65442C70.6794 8.30078 71.0157 7.70802 71.0421 7.06281L71.2157 2.82278C71.2817 1.20907 69.5066 0.186632 68.1439 1.05345L37.0735 20.8172C36.4185 21.2338 35.5816 21.2338 34.9266 20.8172L3.85615 1.05346C2.49343 0.186634 0.718348 1.20907 0.784397 2.82278L0.957943 7.06281C0.984351 7.70802 1.32065 8.30077 1.86095 8.65442L34.9047 30.2831C35.57 30.7185 36.43 30.7185 37.0953 30.2831Z" fill="#FC732C"/>
</svg>
